X:026
T:Minuet TS.026
M:3/4
L:1/8
Q:3/4=40
S:Thomas Sands’ MS,1810,Lincolnshire
R:minuet
C:Prefixed as ‘No.14′ in MS
O:England;Lincolnshire
Z:vmp.Ruairidh Greig, 2011
K:D
d2A2F2|D2DDDD|f2d2A2|[A2F2][AF][AF][AF][AF]|
“_p”dAdfed|eAegfe|fdfagf|fedcBA|
d2A2F2|D2DDDD|f2d2A2|[A2F2][AF][AF][AF][AF]|
“_p”a2f2d’2|a2f2d’2|abagfe|{e}d6:|
|:”_p”A4B2|c4d2|ede2f2|g4z2|
d4e2|f4g2|aga2b2|a4a2|
bgdB Gb|afdA Fa|gecA Eg|fdAF D2|
GFGABc|dcdefg|(3aba g2f2|f2e2 “_f”(3ABc|
d2A2F2|DFAdfd|e/f/g/e/d2c2|(c4d2):|]

